X:19088
T:Xiraldilla (CT 456)
R:Xiraldilla
C:Tradicional
S:Msica Tradicional Asturiana, (C) Tello & Tito. Asturies, 2001.
S:http://pagina.de/MusTradAst <telloytito@asturies.org>
N:Xiraldilla, transcrita en Llamo, ayuntamiento de Riosa.
O:Llamo (Riosa)
A:Asturies
Z:Cancioneru de Torner 456
M:3/8
L:1/8
Q:3/8=88
W:Yo la llamo, la llamo,la llamo,
W:yo la llamo y no quiere subir;
W:es que se estar divertiendo
W:con las flores de otro jardn.
W:
W:Yo la llamo, la llamo,la llamo,
W:yo la llamo y no quiere bajar;
W:es que se estar divertiendo
W:con las flores de otro rosal.
K:C
|G2 G|ccc|cBA|B3|A3|A2 A|ddd|dcB|c2 z|
G2 G|c2 c|c_BA|_B3|A3|_B2 A|G2 A|_BBA|G3-|G ||
